X:1
T:RVW2/1/115 Cloddy Banks
T:RVW2/1/115 Cloddy Banks
T:Transcribed by Simon Furey and Lewis Jones Sung by Mr. Verrall, September 8th, 1908 [1 of 3]
C:Transcribed by Simon Furey and Lewis Jones
C:Sung by Mr. Verrall, September 8th, 1908 [1 of 3]
L:1/8
Q:1/4=120
M:4/4
K:G
V:1 treble 
V:1
"^(Editorial suggestion)" A2 | d2 d2 d2 D2 | G2 B2 A2 F2 | G3 F D2 D2 | D6 D2 | F3 G AB A2 | %6
 d4 d2 A2 | c2 e2 d2 c2 | A6 D2 | F2 G2 AB A2 | d4 d2 A2 | c2 e2 d2 A2 | c4 B2 c2 | d3 c A2 F2 | %14
 G2 B2 A2 F2 | G3 F D2 D2 | D6 |] %17

